X:1
T:Memory
T:Memory Variation
T:Cats 
T:Original By: Andrew Lloyd Webber Variation By: Diabetus_1 
C:Andrew Lloyd Webber
%%score { 1 | ( 2 3 ) }
L:1/8
Q:1/4=80
M:12/8
K:Bb
V:1 treble nm="Piano" snm="Pno."
V:2 bass 
V:3 bass 
V:1
"^Freely and expressively\n"!mp! z12 | z12 | b3 b3- bab c'bg | b3 b3- bab c'b>f | g3 g3- gef gfe | %5
 d6- d3 d2 f |[M:10/8] f3 c2 d!<(! efga!<)! |[M:12/8] bag f3- f3 d2 B | %8
 !arpeggio![Acf]6 z2 G G2 B | B6 z2 z4 | !arpeggio![dfb]3 !arpeggio![dfb]3- [dfb]ab c'bg | %11
 !arpeggio![dgb]3 !arpeggio![dgb]3- [dgb]ab c'b>f | %12
 !arpeggio![Beg]3 !arpeggio![Beg]3- [Beg]ef gfe | !arpeggio![FAd]6- [FAd]3 D2 F | %14
[M:10/8] F3 C2 D!<(! EFGA!<)! |[M:12/8] BAG F3- F3 d2 B | !arpeggio![Acf]6 z2 G G2 B | B6 z2 z4 | %18
 B3 B3- BAB cBG | B3 B3- BAB cB>F | G3 G3- GEF GFE | D6- D3 D2 F |[M:10/8] F3 C2 D!<(! EFGA!<)! | %23
[M:12/8] BAG F3- F3 d2 B | !arpeggio![Acf]6 z2 G G2 B | B6 z2 z4 | B3 B3- BAB cBG | %27
 B3 B3- BAB cB>F | G3 G3- GEF GFE | D6- D3 D2 F |[M:10/8] F3 C2 D!<(! EFGA!<)! | %31
[M:12/8] BAG F3- F3 d2 B | !arpeggio![Acf]6 z2 G G2 B | B12 |] %34
V:2
 (B,,F,D- DF,D) (B,,F,D- DF,D) | (B,,F,D- DF,D) (B,,F,D- DF,D) | (B,,F,D- DF,D) (B,,F,D- DF,D) | %3
 (G,,D,B,- B,D,B,) (G,,D,B,- B,D,B,) | (E,,B,,G,- G,B,,G,) (E,,B,,G,- G,B,,G,) | %5
 (D,,A,,F,- F,A,,F,) (D,,A,,F, A,F,D,) |[M:10/8] (C,E,G, CG,E,) C,G,CG, | %7
[M:12/8] (G,,D,G, B,G,D,) (G,,D,G, B,3) | F,,C,F, A,CF !arpeggio![F,B,E]6 | %9
 (B,,F,D- DF,D) (B,,F,D- DF,D) | (B,,F,D- DF,D) (B,,F,D- DF,D) | %11
 (G,,D,B,- B,D,B,) (G,,D,B,- B,D,B,) | (E,,B,,G,- G,B,,G,) (E,,B,,G,- G,B,,G,) | %13
 (D,,A,,F,- F,A,,F,) (D,,A,,F, A,F,D,) |[M:10/8] (C,E,G, CG,E,) (C,G,CG,) | %15
[M:12/8] (G,,D,G, B,G,D,) (G,,D,G, B,3) | F,,C,F, A,CF !arpeggio![F,B,E]6 | %17
 (B,,F,D- DF,D) (B,,F,D- DF,D) | (B,,F,D- DF,D) (B,,F,D- DF,D) | %19
 (G,,D,B,- B,D,B,) (G,,D,B,- B,D,B,) | (E,,B,,G,- G,B,,G,) (E,,B,,G,- G,B,,G,) | %21
 (D,,A,,F,- F,A,,F,) (D,,A,,F, A,F,D,) |[M:10/8] (C,E,G, CG,E,) C,G,CG, | %23
[M:12/8] (G,,D,G, B,G,D,) (G,,D,G, B,3) | F,,C,F, A,CF !arpeggio![F,B,E]6 | %25
 (B,,F,D- DF,D) (B,,F,D- DF,D) | (B,,F,D- DF,D) (B,,F,D- DF,D) | %27
 (G,,D,B,- B,D,B,) (G,,D,B,- B,D,B,) | (E,,B,,G,- G,B,,G,) (E,,B,,G,- G,B,,G,) | %29
 (D,,A,,F,- F,A,,F,) (D,,A,,F, A,F,D,) |[M:10/8] (C,E,G, CG,E,) C,G,CG, | %31
[M:12/8] (G,,D,G, B,G,D,) (G,,D,G, B,3) | F,,C,F, A,CF !arpeggio![F,B,E]6 | %33
 !arpeggio![B,,D,F,]12 |] %34
V:3
 B,,6 B,,6 | B,,6 B,,6 | B,,6 B,,6 | G,,6 G,,6 | E,,6 E,,6 | D,,6 D,,6 |[M:10/8] C,6 C,4 | %7
[M:12/8] G,,6 G,,6 | F,,6 G,6 | B,,6 B,,6 | B,,6 B,,6 | G,,6 G,,6 | E,,6 E,,6 | D,,6 D,,6 | %14
[M:10/8] C,6 C,4 |[M:12/8] G,,6 G,,6 | F,,6 G,6 | B,,6 B,,6 | B,,6 B,,6 | G,,6 G,,6 | E,,6 E,,6 | %21
 D,,6 D,,6 |[M:10/8] C,6 C,4 |[M:12/8] G,,6 G,,6 | F,,6 G,6 | B,,6 B,,6 | B,,6 B,,6 | G,,6 G,,6 | %28
 E,,6 E,,6 | D,,6 D,,6 |[M:10/8] C,6 C,4 |[M:12/8] G,,6 G,,6 | F,,6 G,6 | x12 |] %34

